icons/tokens/0x6B3595068778DD592e39A122f4f5a5cF09C90fE2/logo.svg

<svg width="32" height="32" viewBox="0 0 32 32" fill="none" xmlns="http://www.w3.org/2000/svg">
<path d="M32 16C32 13.9059 31.5834 11.8118 30.7821 9.87712C29.9808 7.9424 28.7946 6.16704 27.3136 4.6864C25.833 3.20544 24.0576 2.0192 22.1229 1.21792C20.1882 0.41664 18.0941 0 16 0C13.9059 0 11.8118 0.41664 9.87712 1.21792C7.9424 2.0192 6.16704 3.20544 4.6864 4.6864C3.20544 6.16704 2.0192 7.9424 1.21792 9.87712C0.41664 11.8118 0 13.9059 0 16C0 18.0941 0.41664 20.1882 1.21792 22.1229C2.0192 24.0576 3.20544 25.833 4.6864 27.3136C6.16704 28.7946 7.9424 29.9808 9.87712 30.7821C11.8118 31.5834 13.9059 32 16 32C18.0941 32 20.1882 31.5834 22.1229 30.7821C24.0576 29.9808 25.833 28.7946 27.3136 27.3136C28.7946 25.833 29.9808 24.0576 30.7821 22.1229C31.5834 20.1882 32 18.0941 32 16Z" fill="url(#paint0_linear)"/>
<path fill-rule="evenodd" clip-rule="evenodd" d="M26.3348 18.9397L22.3163 24.5412C21.6842 25.4307 20.4579 25.859 18.8637 25.7278C16.8073 25.5581 14.0811 24.4714 11.4681 22.597C8.85511 20.7217 6.94961 18.4879 6.11949 16.5965C5.48746 15.1306 5.4969 13.8364 6.13835 12.9459L10.1475 7.34449C10.7889 6.45494 12.0152 6.02667 13.6 6.15779C15.6564 6.32759 18.3921 7.41524 21.005 9.28961C23.618 11.164 25.5235 13.3978 26.3442 15.2891C26.9857 16.755 26.9668 18.0502 26.3348 18.9397V18.9397Z" fill="white"/>
<path fill-rule="evenodd" clip-rule="evenodd" d="M10.4043 7.52661C10.9876 6.71 12.1153 6.3503 13.5735 6.46696C15.5859 6.63223 18.2496 7.71132 20.8161 9.53899C23.3729 11.3764 25.2492 13.5637 26.0463 15.4108C26.6296 16.7524 26.6491 17.9385 26.0658 18.7551L22.0605 24.3547C21.4772 25.1713 20.3398 25.531 18.8912 25.4144C16.8789 25.2394 14.2054 24.17 11.6486 22.3326C9.08212 20.505 7.21557 18.3176 6.40868 16.4705C5.82538 15.1289 5.80594 13.9429 6.38924 13.1263L10.4043 7.52661Z" fill="#0E0F23"/>
<path fill-rule="evenodd" clip-rule="evenodd" d="M25.5116 18.3565V18.3468C25.9783 17.7051 25.881 16.7524 25.4241 15.683C24.6561 13.9234 22.8576 11.8527 20.4078 10.1028C17.9677 8.35295 15.4303 7.31274 13.5152 7.1572C12.3486 7.05998 11.425 7.27386 10.9584 7.9252L10.9389 7.96409C10.5015 8.61544 10.5987 9.53899 11.0556 10.5889C11.8236 12.3583 13.6221 14.429 16.0622 16.1789C18.5023 17.9287 21.0397 18.969 22.9548 19.1245C24.102 19.212 25.0061 19.0078 25.4825 18.3954L25.5116 18.3468V18.3565Z" fill="white"/>
<path fill-rule="evenodd" clip-rule="evenodd" d="M20.8221 9.54453C18.2538 7.71483 15.5873 6.63236 13.5735 6.46696C12.1141 6.35015 10.9864 6.71214 10.4026 7.5298L6.38467 13.1362C5.80091 13.9539 5.82029 15.1414 6.40406 16.4847C6.93762 17.7067 7.94912 19.0707 9.30493 20.3881C9.42455 20.3763 9.52929 20.3642 9.64874 20.338C10.3434 20.1829 11.0106 19.5838 11.674 18.9702L11.7688 18.8825C12.6531 18.0638 13.5328 17.2555 14.4643 17.4753C15.0901 17.6145 15.5936 18.2512 16.1035 18.927L16.1492 18.9877L16.195 19.0484C16.4162 19.3423 16.6401 19.6383 16.8772 19.8995C17.6554 20.7997 18.5117 21.1924 19.3775 21.0076C20.3678 20.8125 21.1327 19.9286 21.8335 18.9472C20.1075 18.5555 18.055 17.6089 16.0716 16.1859C13.6296 14.4338 11.8462 12.3735 11.0777 10.602C10.6205 9.55068 10.5 8.61987 10.9378 7.96784L10.9572 7.92882C11.4242 7.27679 12.3484 7.06256 13.5159 7.15998C15.4326 7.31557 17.9717 8.35704 20.4135 10.1092C22.8653 11.8611 24.6568 13.927 25.4304 15.6888C25.4685 15.6905 25.5069 15.6935 25.5456 15.6976C25.8218 15.727 26.049 15.7949 26.2396 15.8931C26.1865 15.739 26.1254 15.5824 26.0564 15.4236C25.2585 13.5743 23.3809 11.3843 20.8221 9.54453ZM21.7997 14.4887C21.4205 13.6035 20.5162 12.5626 19.2911 11.687C18.0756 10.8115 16.8019 10.2959 15.849 10.2084C15.3045 10.1695 14.8669 10.257 14.653 10.5586C14.4391 10.8601 14.4974 11.2979 14.7113 11.794C15.0906 12.6793 15.9948 13.7105 17.22 14.586C18.4451 15.4615 19.7092 15.9868 20.6718 16.0647C21.2066 16.1133 21.6441 16.0258 21.858 15.7242C22.0817 15.4226 22.0233 14.9849 21.7997 14.4887Z" fill="url(#paint1_linear)"/>
<path fill-rule="evenodd" clip-rule="evenodd" d="M21.989 19.8931C22.7473 20.0195 23.4472 20.0486 24.0305 19.9514C24.1083 19.9417 24.1666 19.8639 24.1569 19.7861C24.1375 19.7084 24.0694 19.65 23.9916 19.6598C23.4278 19.757 22.7667 19.7278 22.0376 19.6014C21.9598 19.5917 21.882 19.65 21.8723 19.7278C21.8626 19.8056 21.9112 19.8834 21.989 19.8931Z" fill="white"/>
<path fill-rule="evenodd" clip-rule="evenodd" d="M20.8419 19.6403C21.0363 19.6889 21.221 19.7375 21.4155 19.7764C21.4932 19.7959 21.571 19.7473 21.5807 19.6695C21.6002 19.5917 21.5516 19.5139 21.4738 19.4945C21.2891 19.4556 21.1044 19.407 20.9196 19.3584C20.8419 19.3292 20.7544 19.3778 20.7349 19.4556C20.7155 19.5334 20.7641 19.6112 20.8419 19.6403Z" fill="white"/>
<path fill-rule="evenodd" clip-rule="evenodd" d="M9.9828 10.434C10.5272 12.6602 12.666 14.7406 14.3867 16.2183C14.445 16.2766 14.5422 16.2669 14.5908 16.2086C14.6395 16.1405 14.6395 16.0531 14.5714 16.0044C12.8993 14.5559 10.7994 12.5338 10.2745 10.3659C10.255 10.2881 10.1675 10.2395 10.0897 10.259C10.012 10.2784 9.96336 10.3562 9.9828 10.434Z" fill="white"/>
<path fill-rule="evenodd" clip-rule="evenodd" d="M9.85645 9.53956C9.85645 9.63678 9.86617 9.74372 9.87589 9.84093C9.88561 9.91871 9.96338 9.97704 10.0412 9.96731C10.1189 9.95759 10.1773 9.88954 10.1675 9.81177C10.1578 9.71455 10.1481 9.61734 10.1481 9.52984C10.1481 9.44235 10.08 9.38402 9.99255 9.38402C9.91477 9.39374 9.85645 9.46179 9.85645 9.53956Z" fill="white"/>
<defs>
<linearGradient id="paint0_linear" x1="-4.70182" y1="-9.40365" x2="-4.70182" y2="32" gradientUnits="userSpaceOnUse">
<stop/>
<stop offset="1" stop-color="#0E0F23"/>
</linearGradient>
<linearGradient id="paint1_linear" x1="26.1497" y1="19.6373" x2="24.9371" y2="5.51401" gradientUnits="userSpaceOnUse">
<stop stop-color="#FA52A0"/>
<stop offset="0.48" stop-color="#C26BB3"/>
<stop offset="1" stop-color="#27B0E6"/>
</linearGradient>
</defs>
</svg>

<svg width="32" height="32" fill="none" xmlns="http://www.w3.org/2000/svg"><path d="M32 16c0-2.094-.417-4.188-1.218-6.123a16.046 16.046 0 00-3.468-5.19 16.046 16.046 0 00-5.191-3.47A16.055 16.055 0 0016 0c-2.094 0-4.188.417-6.123 1.218a16.047 16.047 0 00-5.19 3.468 16.047 16.047 0 00-3.47 5.191A16.054 16.054 0 000 16c0 2.094.417 4.188 1.218 6.123a16.046 16.046 0 003.468 5.19 16.046 16.046 0 005.191 3.47A16.054 16.054 0 0016 32c2.094 0 4.188-.417 6.123-1.218a16.046 16.046 0 005.19-3.468 16.046 16.046 0 003.47-5.191A16.054 16.054 0 0032 16z" fill="url(#paint0_linear)"/><path fill-rule="evenodd" clip-rule="evenodd" d="M26.335 18.94l-4.019 5.601c-.632.89-1.858 1.318-3.452 1.187-2.057-.17-4.783-1.257-7.396-3.131-2.613-1.875-4.518-4.11-5.349-6-.632-1.466-.622-2.76.02-3.651l4.009-5.602c.64-.89 1.867-1.317 3.452-1.186 2.056.17 4.792 1.257 7.405 3.132 2.613 1.874 4.518 4.108 5.34 6 .64 1.465.622 2.76-.01 3.65z" fill="#fff"/><path fill-rule="evenodd" clip-rule="evenodd" d="M10.404 7.527c.584-.817 1.711-1.177 3.17-1.06 2.012.165 4.676 1.244 7.242 3.072 2.557 1.837 4.433 4.025 5.23 5.872.584 1.341.603 2.528.02 3.344l-4.005 5.6c-.584.816-1.721 1.176-3.17 1.06-2.012-.176-4.686-1.245-7.242-3.082-2.567-1.828-4.433-4.015-5.24-5.862-.584-1.342-.603-2.528-.02-3.345l4.015-5.6z" fill="#0E0F23"/><path fill-rule="evenodd" clip-rule="evenodd" d="M25.512 18.357v-.01c.466-.642.369-1.595-.088-2.664-.768-1.76-2.566-3.83-5.016-5.58-2.44-1.75-4.978-2.79-6.893-2.946-1.166-.097-2.09.117-2.557.768l-.02.04c-.437.65-.34 1.574.118 2.624.768 1.77 2.566 3.84 5.006 5.59 2.44 1.75 4.978 2.79 6.893 2.946 1.147.087 2.051-.117 2.528-.73l.029-.048v.01z" fill="#fff"/><path fill-rule="evenodd" clip-rule="evenodd" d="M20.822 9.545c-2.568-1.83-5.235-2.913-7.248-3.078-1.46-.117-2.588.245-3.171 1.063l-4.018 5.606c-.584.818-.565 2.005.02 3.349.533 1.222 1.544 2.586 2.9 3.903.12-.012.224-.024.344-.05.694-.155 1.362-.754 2.025-1.368l.095-.087c.884-.82 1.764-1.627 2.695-1.408.626.14 1.13.776 1.64 1.452l.045.06.046.061c.221.294.445.59.682.852.778.9 1.635 1.292 2.5 1.108.99-.195 1.756-1.08 2.457-2.06-1.726-.393-3.779-1.34-5.762-2.762-2.442-1.752-4.226-3.813-4.994-5.584-.457-1.051-.578-1.982-.14-2.634l.02-.04c.466-.651 1.39-.865 2.558-.768 1.917.156 4.456 1.197 6.897 2.95 2.452 1.751 4.244 3.817 5.017 5.579l.116.009c.276.029.503.097.694.195a6.462 6.462 0 00-.184-.47c-.797-1.849-2.675-4.039-5.234-5.878zm.978 4.944c-.38-.886-1.284-1.926-2.509-2.802-1.215-.875-2.49-1.391-3.442-1.479-.544-.039-.982.049-1.196.35-.214.302-.156.74.058 1.236.38.885 1.284 1.916 2.509 2.792 1.225.875 2.49 1.4 3.452 1.479.535.048.972-.04 1.186-.34.224-.302.165-.74-.058-1.236z" fill="url(#paint1_linear)"/><path fill-rule="evenodd" clip-rule="evenodd" d="M21.989 19.893c.758.127 1.458.156 2.041.058a.151.151 0 00.127-.165c-.02-.078-.088-.136-.165-.126-.564.097-1.225.068-1.954-.059a.151.151 0 00-.166.127c-.01.078.04.155.117.165zM20.842 19.64c.194.049.379.098.574.136.077.02.155-.029.165-.107a.145.145 0 00-.107-.175c-.185-.038-.37-.087-.554-.136a.142.142 0 00-.185.098c-.02.077.03.155.107.184zM9.983 10.434c.544 2.226 2.683 4.307 4.404 5.784a.14.14 0 00.204-.01c.049-.067.049-.155-.02-.204-1.672-1.448-3.772-3.47-4.296-5.638a.155.155 0 00-.185-.107.145.145 0 00-.107.175zM9.856 9.54c0 .097.01.204.02.3.01.079.087.137.165.127a.142.142 0 00.127-.155c-.01-.097-.02-.195-.02-.282 0-.088-.068-.146-.155-.146a.157.157 0 00-.137.156z" fill="#fff"/><defs><linearGradient id="paint0_linear" x1="-4.702" y1="-9.404" x2="-4.702" y2="32" gradientUnits="userSpaceOnUse"><stop/><stop offset="1" stop-color="#0E0F23"/></linearGradient><linearGradient id="paint1_linear" x1="26.15" y1="19.637" x2="24.937" y2="5.514" gradientUnits="userSpaceOnUse"><stop stop-color="#FA52A0"/><stop offset=".48" stop-color="#C26BB3"/><stop offset="1" stop-color="#27B0E6"/></linearGradient></defs></svg>
